!! 00006] TT[TB
!! Eigene Aufnahme
!!!OTL: Meihua kai de hao
!!!ARE: Asia, China,ÿLiaoning, Xinjin
!! Ethnic Group: Han
!! III, 206
!!!SCT: C0153
!!!YEM: Copyright 1995, estate of Helmut Schaffrath.
**kern
*ICvox
*Ivox
*M2/4
*k[b-]
*F:
{8r
8ff
8ff
16dd
16cc
=1
8dd
16dd
16cc
4a
=2
8ff
16ff
16gg
8ff
16dd
16cc
=3
8dd
16dd
16cc
4a}
=4
{8ff
16ff
16dd
8ff
8gg
=5
8ee
8dd
8cc
8a
=6
8g
8g
8cc
8a
=7
2g}
=8
{8r
8ff
8ff
16ff
16dd
=9
8ff
16ff
16dd
8.cc
16a
=10
8cc
16cc
16a
16g
16a
8cc
=11
8cc
8f
8f
8d}
=12
{8g
16a
16g
8f
8d
=13
4c
4cc
=14
8.a
16g
8f
[8a
=15
8a]
4a
8d
=16
2c}
==
!!!AGN: Xiaodiao, Dangu qupai, Dao chashan diao. Xin minge
!! neuer Text, 1958); wird mit Ban, H”lzerklapper) begleitet oder per
!!    Klatschen imitiert. Wurde im Schattenspiel verwendet. AUFTAKT!
!!    Saengerin: Huang Bai, imitiert das Vorspiel.
!!    Phrasen 3, 4 der 4., letzten) Strophe:
!!    0_+1_+1_+16  6_6_6_5_  5_53235_  1_1_
!!    1_-6_  2_321_-6_  -5__5__  3_.21_3_  ^_+1__6_  5___ //
!!    Wenig Verzierungen. Vorspiel weggelassen.
!!    VARIANTE. Die Atmung laesst auf andere Phraseneinteilung shliessen
!!!ONB: ESAC (Essen Associative Code) Database: CHINA
!!!AMT: simple duple
!!!AIN: vox
!!!EED: Helmut Schaffrath
!!!EEV: 1.0
*-
!!!ONB: Tied note syntax fixed by Craig Sapp, 2004/05/03/
